X:729
T:Mrs. Ramsay of Barnton
R:Strathspey
B:The Athole Collection
M:C
L:1/8
K:E Minor
E>FG>A B>e e2|d>BA>G F<D D>F|E>FG>A B<e e>f|g>eB>^d e/e/e e>f|
g>ef>^d e^c|d>BA>G F<D D>F|E<GF<A Gf g>e e||
f|g<e f>^d e^c|d>BA>G F<D D>f|g>ef>^d ee|B>e^d>f e/e/e e>f|
g>eB>g f>^de>^c|d>B A<d F<DA<F|E>GF>A G>Be>g|f>da>f g>e e||
